X: 8980
T: Cutting Bracken
R: strathspey
M: 4/4
K: Adorian
M:2/4
|:G|"Am" A2 ab/a/|"G" ge g2|"Em" e>d BA|"G" GA BG|
"Am" A2 ab/a/|"G" ge g2|"Em" e>d BG|"Am" A2 A:|
|:d|"Am" e>d BA|"G" GA Bd|"Em" e>d BA|"G" B2 Bd|
"Am" e>d BA|"G" GA Bd|"Em" ed gB|"Am" A2 A:|

